X:29
T:Minstrel Boy
M:4/4
Q:1/4=100
L:1/8
K:G
%%MIDI channel 1
%%MIDI program 72
%%MIDI transpose 8
%%MIDI grace 1/8
%%MIDI ratio 3 1
D2|SG3A cB AG|B2 d2 g2 f>g|e2 d2 B>c dB|A4 !fine!G2:|
z2|g2 f2 e2 fg|f2 e2 d2 z^d|e3 B B3 ^d|!D.S.!e3 f g2 g2|]

